X: 1
T: Miss Christina Ireland
C: David I Cunningham
R: strathspey
Z: 2014 John Chambers <jc:trillian.mit.edu>
S: Image from George Meikle, via Sylvia Miskoe
N: Part of a set for In Traditional Mode, in a dance program from 2012
M: 4/4
L: 1/8
K: A
A>G |\
"A"C<E e>d "F#m"c2 B>A | "B7"B>c B>A "E"G<E E>=F |\
"D"^F>D f>e "Bm"d>c B>A | "B7"B>c B<F "E7"G<B B> ||
D |\
"A"C<E "E7"e>d "F#m"c2 B>A | "B7"B>c B>A "E"G<E "A7"(3EF=G |\
"D"(3FDF (3AGF "A"E>A (3cBA | "E7"GAB E>d "A"c<A A> |]
g |\
"A"a<A e>d c2 B>A | "F#m"f<F f>e "Bm"e<d d>a |\
"E"(3gfe b>g "A"a>e "F#m"c<A | "B7"B>c B>F "E7"G<B B> ||
g |\
"A"a<A e>d c2 B>A | "F#m"f<F f>e "Bm"e<d d>a |\
"E"(3gfe b>g "F#m"a>e c<A | "Bm"(3def "E7"e>d "A"c<A A2 |]
